X:166
T:Cuttie's Wedding
R:Strathspey
B:The Athole Collection
M:C|
L:1/8
K:A Minor
A<A c2 e/d/c/B/ c2|A<A c>d e<Ac<e|A<A c2 e/d/c/B/ c2|G<G B>G d>G B<d:|
c>gg>a g<c e2|c<g g>a g<ce<g|c<g g>a g<c e2|G<G B>G d>B B<d|
c<g g>a g<c e2|c<g g>a g<ce<g|a>fg>e f<de<c|d<G B>G d>G B<d||

